16x16/actions/kt-queue-manager.svg

<svg height="16" viewBox="0 0 4.233 4.233" width="16" xmlns="http://www.w3.org/2000/svg"><path d="m.53 3.44v-.265h.793v.265zm0-2.646v.264h2.38v-.264zm0 1.852v-.266h1.322v.265zm0-.794v-.264h1.85v.264zm2.248 1.852-.926-.926.187-.187.607.607v-1.081h.264v1.08l.607-.606.187.187z" fill="#8b9cbe"/></svg>

<svg height="16" viewBox="0 0 4.233 4.233" width="16" xmlns="http://www.w3.org/2000/svg"><g style="fill:currentColor;fill-opacity:1;stroke:none;color:#8b9cbe"><path d="M.53 3.44v-.265h.793v.265zM.53.794v.264h2.38V.794zM.53 2.646V2.38h1.322v.265zM.53 1.852v-.264H2.38v.264zM2.778 3.704l-.926-.926.187-.187.607.607V2.117h.264v1.08l.607-.606.187.187z"/></g></svg>
